X:1
T:Valses poéticos
T:Tempo de Vals lento
T:Valses poéticos
T:No. 3
T:Enrique Granados
T:OpenScore (CC0)
C:Enrique Granados
Z:OpenScore (CC0)
%%score { ( 1 4 ) | ( 2 3 ) }
L:1/8
Q:1/4=120
M:3/4
K:F
V:1 treble nm="Piano" snm="Pno."
V:4 treble 
V:2 bass 
V:3 bass 
V:1
"^Tempo de Vals lento" (D2 A,2 D2 | ^C2 E2 C2 | D2 A3 A | [^CA]4) z2 | ([df]2 [ce]2 [Bd]2 | %5
 [Ac]2"_cresc." [GB]2 [FA]2) | G2 B3 B | !>!B6 | (B2"_dim." A2 E2 | [DF]2 [CE]2 [B,D]2 | %10
 [A,^C]2[I:staff +1] [E,A,]3 [E,A,]) | [E,A,]6 |[I:staff -1] (D2 A,2 D2 | ^C2 E2 C2 | D2 A3 A | %15
"_con spiritu" [DA]6) |!>(! ([c_ea]2 [Bdg]2 [Ac^f]2 | [GB_e]2 [^FAd]2 [DAc]2 | [DAc]2 [GB]2 [DA]2 | %19
 [DG]6)!>)! | (B2 A2 G2 | [G,DF]2 [=CE]2 [B,D]2 | D2"_rall." ^C3 D | !fermata!D6) | %24
[K:D][Q:1/4=150]"^Poco più" (Af .f) z f2 | (fG) .G z G2 | (Ge .e) z e2 | (eF) F2 z2 | (Fd) d z d2 | %29
 (dE) E z E2 | (EB) B z"_rall.    molto" B2 | BB,"^ten." !tenuto!B,4 |"_a tempo" (Af) f z f2 | %33
 (fG) G z G2 | (Be) e z e2 | (eF) !>!F2 z2 |"_meno" (=Fd) d z d2 | (dE) E z E2 | (E_B) B z B2 | %39
"_rall." _BA, A,4 |] %40
V:2
 F,6 | G,6 | A,6 | G,6 | D2 A,4 | D,2 D,,4 | E,,2 G,4 | G,6 | G,6 | [D,F,]2 [E,G,]2 [E,^G,]2 | %10
 [A,,E,]2 [A,,^C,]3 [A,,C,] | [A,,^C,]6 | F,6 | G,6 | F,6 | F,2 A,,4 | z2 D,4 | z2 ^F,4 | %18
 z2 z2 (=F,2 | [E,G,]6) | [A,,E,]6 | x4 F,2 | [E,A,]6 | [^F,A,]6 |[K:D] (D,2 [F,A,D]) z z2 | %25
 (D,2 [F,G,B,]) z z2 | (C,2 [E,G,C]) z z2 | (^A,,2 [E,F,C]) z z2 | (B,,2 [F,B,]) z z2 | %29
 (G,,2 [G,B,]) z z2 | (A,,2 [G,C]) z z2 | D,,2 [F,D]4 | (D,2 [F,A,D]) z z2 | (D,2 [F,G,B,]) z z2 | %34
 (C,2 [E,G,C]) z z2 | (^A,,2 [E,F,C]) z z2 | (_B,,2 [=F,B,]) z z2 | (G,,2 [D,_B,]) z z2 | %38
 (G,,2 [E,D]) z z2 | A,,2 [G,^C]2 z2 |] %40
V:3
 (D,,2 A,,4) | (E,,2 A,,4) | (F,,2 A,,4) | (E,,2 A,,4) | x6 | x6 | x6 | E,,6 | A,,6 | x6 | x6 | %11
 x6 | (D,,2 A,,4) | (E,,2 A,,4) | (D,,2 A,,4) | x6 | D,,4 x2 | D,,4 x2 | G,,4 x2 | x6 | x6 | %21
 G,,2 B,,2 ^G,,2 | A,,6 | [D,,A,,]6 |[K:D] x6 | x6 | x6 | x6 | x6 | x6 | x6 | x6 | x6 | x6 | x6 | %35
 x6 | x6 | x6 | x6 | x6 |] %40
V:4
 x6 | x6 | x6 | x6 | F6 | D6 | D6 | D6 | ^C6 | x6 | x6 | x6 | x6 | x6 | x6 | x6 | x6 | x6 | x6 | %19
 x6 | ^C6 | x6 | x6 | x6 |[K:D] x6 | x6 | x6 | x6 | x6 | x6 | x6 | x6 | x6 | x6 | x6 | x6 | x6 | %37
 x6 | x6 | x6 |] %40

